X:1
T:Old Mrs. Huddledee
T:Kafoozalum
M:4/4
L:1/8
K:G
d2 d>c B>c d2|A>Bc>B A>B c2|d2 d>c B>c d2|G>AB>G A2 G2:|
|:B>GD>G B>G B2|c>AF>A c>A (3cdc|B>GD>G B>GB>A|G>AB>G A2 G2:|]

